X: 1
T: The Little Cascade
R: reel
M: 4/4
L: 1/8
K: Edor
|Beeg geBg|geeB gBeg|Beeg geBg|fdAe fagf|
!Beeg geBg|geeB gBeg|Beeg geBg|fagf fe eg|
!|:fBgf egbg|fBag gffg|fBgf egBg|fagf fe eg:|
!|G2 Be Bege| g2 fg egBe | G2 ce cege | fdAd fagf |
!|G2 Be Bege| g2 fg egBe | G2 Be geBg | fagf fe ef|
!|:gefg efge | fdef defd | gefg efge | fage fe ef:|
!|:Begf e2 fd | Bedf edBA | Begf e2 fd | Bedf fe eg :|
!|GdBe df e2 | gfge Bega | GdBe df e2 | Bedf feeg |
!|GdBe df e2 | gfge Bega | gfge eded | Bedf feeg ||


Tune 1368	Setting 14720

